Newaita-dark/.DP/24/whatsapp-warning-msg.svg

<svg xmlns="http://www.w3.org/2000/svg" xmlns:xlink="http://www.w3.org/1999/xlink" width="24px" height="24px" viewBox="0 0 24 24" version="1.1">
<g id="surface1">
<path style=" stroke:none;fill-rule:nonzero;fill:rgb(14.901961%,65.098041%,60.392159%);fill-opacity:1;" d="M 11.90625 3.164062 C 6.410156 3.164062 1.984375 7.148438 1.984375 12.09375 C 1.984375 14.605469 3.125 16.867188 4.96875 18.488281 L 4.96875 20.03125 C 4.96875 20.859375 5.933594 21.320312 6.578125 20.792969 L 7.449219 20.082031 C 8.789062 20.6875 10.304688 21.023438 11.90625 21.023438 C 17.40625 21.023438 21.828125 17.042969 21.828125 12.09375 C 21.828125 11.914062 21.824219 11.734375 21.8125 11.554688 C 21.53125 11.742188 21.195312 11.851562 20.835938 11.851562 L 15.875 11.851562 C 14.949219 11.851562 14.132812 11.113281 14.132812 10.167969 L 14.132812 10.054688 C 14.132812 9.4375 14.476562 8.914062 14.96875 8.621094 C 14.476562 8.328125 14.132812 7.804688 14.132812 7.191406 L 14.132812 7.078125 C 14.132812 6.460938 14.476562 5.9375 14.96875 5.644531 C 14.476562 5.351562 14.132812 4.828125 14.132812 4.214844 L 14.132812 4.097656 C 14.132812 3.855469 14.1875 3.625 14.285156 3.421875 C 13.523438 3.253906 12.726562 3.164062 11.90625 3.164062 Z M 15.875 3.914062 C 15.703125 3.914062 15.632812 4.007812 15.632812 4.097656 L 15.632812 4.214844 C 15.632812 4.304688 15.703125 4.398438 15.875 4.398438 L 16.960938 4.398438 C 16.621094 4.21875 16.265625 4.054688 15.90625 3.914062 Z M 10.128906 6.804688 C 10.3125 6.808594 10.492188 6.90625 10.59375 7.078125 L 11.960938 9.453125 C 12.113281 9.714844 12.023438 10.046875 11.761719 10.203125 L 11.289062 10.476562 C 11.023438 10.625 10.6875 10.539062 10.539062 10.273438 L 9.167969 7.902344 C 9.015625 7.640625 9.105469 7.304688 9.367188 7.152344 L 9.84375 6.878906 C 9.933594 6.828125 10.03125 6.804688 10.128906 6.804688 Z M 15.875 6.890625 C 15.703125 6.890625 15.632812 6.984375 15.632812 7.078125 L 15.632812 7.191406 C 15.632812 7.28125 15.703125 7.375 15.875 7.375 L 20.34375 7.375 C 20.226562 7.210938 20.109375 7.046875 19.984375 6.890625 Z M 8.929688 8.039062 L 10.300781 10.414062 C 9.585938 10.820312 9.796875 12.28125 10.347656 13.234375 C 10.894531 14.179688 12.054688 15.09375 12.765625 14.683594 L 14.136719 17.054688 C 12 18.289062 9.945312 14.730469 9.398438 13.78125 C 8.851562 12.832031 6.796875 9.273438 8.929688 8.039062 Z M 15.875 9.867188 C 15.703125 9.867188 15.632812 9.960938 15.632812 10.054688 L 15.632812 10.167969 C 15.632812 10.257812 15.703125 10.351562 15.875 10.351562 L 20.835938 10.351562 C 21.007812 10.351562 21.082031 10.257812 21.082031 10.167969 L 21.082031 10.054688 C 21.082031 9.960938 21.007812 9.867188 20.835938 9.867188 Z M 13.964844 13.449219 C 14.148438 13.453125 14.328125 13.550781 14.429688 13.726562 L 15.796875 16.097656 C 15.949219 16.359375 15.859375 16.695312 15.597656 16.84375 L 15.125 17.117188 C 14.859375 17.273438 14.523438 17.179688 14.375 16.921875 L 13.003906 14.546875 C 12.851562 14.28125 12.941406 13.949219 13.203125 13.796875 L 13.679688 13.523438 C 13.769531 13.46875 13.867188 13.445312 13.964844 13.449219 Z M 13.964844 13.449219 "/>
<path style=" stroke:none;fill-rule:nonzero;fill:rgb(14.901961%,65.098041%,60.392159%);fill-opacity:1;" d="M 15.875 3.164062 C 15.328125 3.164062 14.882812 3.578125 14.882812 4.097656 L 14.882812 4.214844 C 14.882812 4.734375 15.328125 5.148438 15.875 5.148438 L 20.835938 5.148438 C 21.386719 5.148438 21.828125 4.734375 21.828125 4.214844 L 21.828125 4.097656 C 21.828125 3.578125 21.386719 3.164062 20.835938 3.164062 Z M 15.875 6.140625 C 15.328125 6.140625 14.882812 6.558594 14.882812 7.078125 L 14.882812 7.191406 C 14.882812 7.710938 15.328125 8.125 15.875 8.125 L 20.835938 8.125 C 21.386719 8.125 21.828125 7.710938 21.828125 7.191406 L 21.828125 7.078125 C 21.828125 6.558594 21.386719 6.140625 20.835938 6.140625 Z M 15.875 9.117188 C 15.328125 9.117188 14.882812 9.535156 14.882812 10.054688 L 14.882812 10.167969 C 14.882812 10.6875 15.328125 11.101562 15.875 11.101562 L 20.835938 11.101562 C 21.386719 11.101562 21.828125 10.6875 21.828125 10.167969 L 21.828125 10.054688 C 21.828125 9.535156 21.386719 9.117188 20.835938 9.117188 Z M 15.875 9.117188 "/>
</g>
</svg>

<svg xmlns="http://www.w3.org/2000/svg" width="24" height="24"><g fill="#26a69a"><path d="M11.906 3.164c-5.496 0-9.922 3.984-9.922 8.93 0 2.511 1.141 4.773 2.98 6.394v1.54a.988.988 0 0 0 1.614.765l.871-.711c1.34.605 2.852.945 4.457.945 5.5 0 9.926-3.984 9.926-8.933 0-.18-.008-.36-.02-.535a1.79 1.79 0 0 1-.972.293h-4.965c-.926 0-1.738-.739-1.738-1.684v-.117c0-.61.34-1.133.836-1.43a1.66 1.66 0 0 1-.836-1.43v-.117c0-.61.34-1.136.836-1.43a1.66 1.66 0 0 1-.836-1.43v-.116c0-.243.05-.473.148-.676a11.043 11.043 0 0 0-2.379-.258zm3.969.75c-.168 0-.242.094-.242.184v.117c0 .09.074.183.242.183h1.086c-.34-.18-.691-.34-1.059-.484zm-5.746 2.89a.544.544 0 0 1 .46.274l1.372 2.375a.549.549 0 0 1-.2.75l-.476.274a.542.542 0 0 1-.746-.204l-1.371-2.37a.548.548 0 0 1 .2-.75l.476-.274a.576.576 0 0 1 .285-.074zm5.746.087c-.168 0-.242.093-.242.183v.117c0 .09.074.184.242.184h4.469c-.117-.164-.235-.328-.364-.484zM8.93 8.039l1.37 2.371c-.71.414-.5 1.875.048 2.824.547.95 1.707 1.86 2.418 1.45l1.37 2.37C12 18.29 9.947 14.73 9.399 13.782c-.546-.949-2.605-4.508-.468-5.742zm6.945 1.828c-.168 0-.242.094-.242.184v.117c0 .09.074.187.242.187h4.965c.168 0 .242-.097.242-.187v-.117c0-.09-.074-.184-.242-.184zm-1.91 3.582a.555.555 0 0 1 .465.274l1.367 2.375a.549.549 0 0 1-.2.75l-.476.273a.542.542 0 0 1-.746-.203l-1.371-2.371a.549.549 0 0 1 .2-.75l.476-.274a.576.576 0 0 1 .285-.074zm0 0"/><path d="M15.875 3.164c-.547 0-.992.418-.992.934v.117c0 .515.445.933.992.933h4.965c.547 0 .992-.418.992-.933v-.117c0-.516-.445-.934-.992-.934zm0 2.977c-.547 0-.992.418-.992.933v.117c0 .52.445.934.992.934h4.965c.547 0 .992-.414.992-.934v-.117c0-.515-.445-.933-.992-.933zm0 2.976c-.547 0-.992.418-.992.934v.117c0 .52.445.934.992.934h4.965c.547 0 .992-.415.992-.934v-.117c0-.516-.445-.934-.992-.934zm0 0"/></g></svg>
